!!!SOCIAL_FUNCTION:	miscellaneous songs
!!!PDT:	1956
!!!OTL: No_237_Drinking_Song_(a).krn
!!!LANG: Non-Tone
!!!LING_GROUP: Muskogean
!!!REG: Florida
**kern
*staff1
=1-
*clefG2
*k[b-e-a-]
*M2/4
4r
16e-/LK
8.e-/J
=2!|:
4g/
8g/L
24f/K
12e-/J
=3
2e-/
=4
16f/LK
8.e-/J
16f/LK
8.e-/J
=5||
*M3/4
12g/L
12f/
12e-/J
4f/
4e-/
=6||
*M2/4
4c/
8.r
16e-/
=7||
*M5/8
8.e-/L
16e-/K
8.e-/
16e-/K
8e-/J
=8||
*M2/4
4g/
8f/L
8e-/J
=9
4e-/
4e-/
=10||
*M3/4
16f/LK
8.e-/J
4f/
12g/L
12f/
12e-/J
=11||
*M2/4
16f/LK
8.en/J
4e-/
=12
4c/
4r
=13||
*M3/4
16e-/LK
8.c/J
4e-/
16e-/LK
8.e-/J
=14||
*M2/4
4g/
12f/L
12e-/
12e-/J
=15
4e-/
4r
=16
(16f/LK
8.e-/J)
4f/
=17||
*M3/4
8g/L
8g/J
4f/
(8.e-/L
16c/Jk)
=18||
*M2/4
4c/
4r
=19
16e-/LK
8.e-/J
4e-/
=20
(8f/L
8e-/J)
8c/L
8c/J
=21
4.e-/
8r
=22
*M3/4
16e-/LK
8.e-/J
16e-/LK
8.e-/J
4e-/
==:|!
*-
